icon-svg/desk-lamp.svg

<?xml version="1.0" encoding="UTF-8"?>
<svg width="32px" height="32px" viewBox="0 0 32 32" version="1.1" fill="#44739e" xmlns="http://www.w3.org/2000/svg" xmlns:xlink="http://www.w3.org/1999/xlink">
            <path d="M22.861065,9.736 C24.760065,9.098 25.128065,9.618 23.639065,10.921 C22.130065,12.241 19.323065,13.834 17.413065,14.454 C15.530065,15.066 15.269065,14.486 16.789065,13.183 C18.287065,11.897 20.988065,10.365 22.861065,9.736 M17.045065,16.714 C19.783065,15.956 23.716065,13.722 25.768065,11.762 C26.806065,10.771 27.146065,10.054 26.869065,9.694 C24.920065,6.49 21.067065,5.17 17.880065,6.537 C17.927065,6.365 17.962065,6.187 17.962065,6 C17.962065,4.895 17.066065,4 15.962065,4 C14.857065,4 13.962065,4.895 13.962065,6 C13.962065,6.983 14.673065,7.797 15.609065,7.965 L6.29706497,16.884 C6.11006497,17.063 6.00306497,17.31 6.00006497,17.568 C5.99706497,17.827 6.09806497,18.076 6.28206497,18.258 L12.218065,24.195 C11.663065,24.276 11.131065,24.376 10.668065,24.508 C9.69306497,24.79 9.14106497,25.138 8.99906497,25.499 C8.97306497,25.558 8.96206497,25.623 8.96206497,25.686 L8.96206497,26.311 C8.96206497,26.375 8.97306497,26.435 8.99906497,26.499 C9.14506497,26.874 9.73806497,27.234 10.769065,27.519 C13.094065,28.16 16.822065,28.16 19.150065,27.519 C20.181065,27.234 20.778065,26.874 20.924065,26.499 C20.950065,26.435 20.962065,26.375 20.962065,26.311 L20.962065,25.686 C20.962065,25.623 20.950065,25.558 20.924065,25.499 C20.782065,25.138 20.230065,24.79 19.259065,24.508 C18.025065,24.154 16.378065,23.989 14.748065,24.006 L8.33706497,17.593 L13.818065,12.342 C13.704065,13.75 13.979065,15.225 14.696065,16.589 C14.855065,17.021 15.647065,17.101 17.045065,16.714"></path>
</svg>

<svg xmlns="http://www.w3.org/2000/svg" fill="#44739e" viewBox="0 0 24 24"><path d="M22.861 9.736c1.899-.638 2.267-.118.778 1.185-1.509 1.32-4.316 2.913-6.226 3.533-1.883.612-2.144.032-.624-1.271 1.498-1.286 4.199-2.818 6.072-3.447m-5.816 6.978c2.738-.758 6.671-2.992 8.723-4.952 1.038-.991 1.378-1.708 1.101-2.068C24.92 6.49 21.067 5.17 17.88 6.537c.047-.172.082-.35.082-.537 0-1.105-.896-2-2-2-1.105 0-2 .895-2 2 0 .983.711 1.797 1.647 1.965l-9.312 8.919a.963.963 0 0 0-.297.684c-.003.259.098.508.282.69l5.936 5.937c-.555.081-1.087.181-1.55.313-.975.282-1.527.63-1.669.991a.47.47 0 0 0-.037.187v.625c0 .064.011.124.037.188.146.375.739.735 1.77 1.02 2.325.641 6.053.641 8.381 0 1.031-.285 1.628-.645 1.774-1.02a.49.49 0 0 0 .038-.188v-.625c0-.063-.012-.128-.038-.187-.142-.361-.694-.709-1.665-.991-1.234-.354-2.881-.519-4.511-.502l-6.411-6.413 5.481-5.251c-.114 1.408.161 2.883.878 4.247.159.432.951.512 2.349.125"/></svg>
